X:1
T: Mrs Fileming of Moness
C:
R:Strathspey
Q: 128
K:Bb
M:4/4
L:1/16
|:F2|D3B, D3F B4 A3G|FB,3 GFED EC3 C3F|D3B, D3F B4 A3G|ABc2 F3A BB,3 B,2:|
|:d2|Bf3 df3 Bf3 df3|Fc3 Ac3 Fc3 Ac3|Bf3 df3 Bf3 df3|bagf g3e dB3 B2:|
|:F2|D3B, F3B, G3B, F3B,|D3B, GFED EC3 C3F|D3B, F3B, G3B, F3A|BG3 F3E DB,3 B,2:|
|:g2|fB3 dcB2 f3B b3B|fB3 edcB cG3 G3e|fB3 edcB fB3 b3B|A3G F3E DB,3 B,2:|
